file-powerpoint-outline.svg

<svg fill="currentColor" viewBox="0 0 24 24"><path d="M14 2H6a2 2 0 0 0-2 2v16c0 1.11.89 2 2 2h12c1.11 0 2-.89 2-2V8zm4 18H6V4h7v5h5zm-2.8-9.2c-.5-.5-1.1-.8-2.4-.8H9v9h1.6v-3.3h2.2c1.3 0 1.8-.2 2.4-.7s.8-1.2.8-2.1-.2-1.5-.8-2.1M13.9 14c-.3.3-.6.5-1.2.5h-2.1v-3.2h2c.6 0 1 .2 1.3.5s.4.6.4 1.1-.1.8-.4 1.1"/></svg>

<svg  viewBox="0 0 24 24" fill="currentColor"><path  d="M14 2H6C4.89 2 4 2.9 4 4V20C4 21.11 4.89 22 6 22H18C19.11 22 20 21.11 20 20V8L14 2M18 20H6V4H13V9H18V20M15.2 10.8C14.7 10.3 14.1 10 12.8 10H9V19H10.6V15.7H12.8C14.1 15.7 14.6 15.5 15.2 15C15.8 14.5 16 13.8 16 12.9C16 12 15.8 11.4 15.2 10.8M13.9 14C13.6 14.3 13.3 14.5 12.7 14.5H10.6V11.3H12.6C13.2 11.3 13.6 11.5 13.9 11.8C14.2 12.1 14.3 12.4 14.3 12.9S14.2 13.7 13.9 14Z"/></svg>
